X: 220
T: Paddy Godden's Lancers Chain Away
B: australian dance tunes
M:2/4
L:1/8
Q: 1/4=100
K:G
V:1 
DG GF|cE E2|DG GF|cE E2|Dd dc|Ec cB|DB BA|EF G2|!
DG GF|cE z2|DG GF|cE z2|Dd dc|Ec cB|DB BA|EF G2||!
A3 G/2A/2|BA EA|BA EF|G4|A3 G/2A/2|BA EA|BA EF|G2 FE||
% abcbook-tune_id 62a07850abdc3bc1ab8f1685


% abcbook-boost 0
% abcbook-tablature 
% abcbook-transpose 
% abcbook-lastupdated 1654683750385
% abcbook-soundfonts 
% abcbook-repeats 1


